src/main/resources/icons/AllIcons/debugger/db_verified_method_breakpoint_dark.svg

<!-- Copyright 2000-2021 JetBrains s.r.o. Use of this source code is governed by the Apache 2.0 license that can be found in the LICENSE file. -->
<svg xmlns="http://www.w3.org/2000/svg" width="12" height="12" viewBox="0 0 12 12">
  <g fill="none" fill-rule="evenodd">
    <path fill="#C75450" d="M7.67172425,1.67172425 L7.47951278,1.8456667 L6.66900324,1.11219322 C6.48513239,0.945798643 6.24599493,0.853658299 5.99801179,0.853658299 L5.1463417,0.853658299 L6,4.57411886e-14 L7.67172425,1.67172425 Z M10.0351566,4.0351566 L12,6 L6,12 L3.4861003e-14,6 L4,2 L4,2.7568126 C4,3.03934809 4.11951834,3.30869878 4.32900855,3.49827768 L6.80779591,5.74146508 C7.18872475,6.08618798 7.7688909,6.08617705 8.14980675,5.74143981 L10.0351566,4.0351566 Z"/>
    <polygon fill="#AFB1B3" fill-rule="nonzero" points="12 .908 7.479 5 5 2.757 5 1.854 5.998 1.854 7.48 3.194 11.009 0 12 0"/>
  </g>
</svg>

<svg xmlns="http://www.w3.org/2000/svg" width="12" height="12" viewBox="0 0 12 12"><rect id="frame" width="12" height="12" fill="none"/><g fill="none" fill-rule="evenodd"><path fill="#C75450" d="M7.672 1.672l-.192.174-.811-.734a1 1 0 0 0-.671-.258h-.852L6 0l1.672 1.672zm2.363 2.363L12 6l-6 6-6-6 4-4v.757a1 1 0 0 0 .329.741l2.479 2.243a1 1 0 0 0 1.342 0l1.885-1.706z"/><path fill="#AFB1B3" fill-rule="nonzero" d="M12 .908L7.479 5 5 2.757v-.903h.998l1.482 1.34L11.009 0H12z"/></g></svg>
